Catalina-light/actions/16/align-horizontal-baseline.svg

<svg width="16" height="16" viewBox="0 0 16 16" xmlns="http://www.w3.org/2000/svg">
<defs>
<style id="current-color-scheme" type="text/css">.ColorScheme-Text { color:#5c616c; } .ColorScheme-Highlight { color:#5294e2; }</style>
</defs>
<path class="ColorScheme-Text" d="m1 0v16h2v-1-15h-2zm2 15h2.5l1.0625-3h4.875l1.0625 3h2.7812l-5.2812-14h-2l-5 14zm6-10 1.75 5h-3.5l1.75-5z" fill="currentColor"/>
</svg>

<svg xmlns="http://www.w3.org/2000/svg" width="16" height="16" viewBox="0 0 16 16">
 <defs>
  <style id="current-color-scheme" type="text/css">
   .ColorScheme-Text { color:#5c616c; } .ColorScheme-Highlight { color:#5294e2; }
  </style>
 </defs>
 <path style="fill:currentColor" class="ColorScheme-Text" d="M 1 0 L 1 16 L 3 16 L 3 15 L 3 0 L 1 0 z M 3 15 L 5.5 15 L 6.5625 12 L 11.4375 12 L 12.5 15 L 15.28125 15 L 10 1 L 8 1 L 3 15 z M 9 5 L 10.75 10 L 7.25 10 L 9 5 z"/>
</svg>
